packages/core/src/svgs/tokens/branded/ACT.svg

<svg width="24" height="24" viewBox="0 0 24 24" fill="none" xmlns="http://www.w3.org/2000/svg">
<path d="M14.2298 2.6255C14.3843 2.62487 14.5361 2.66673 14.6692 2.74736C14.8029 2.82797 14.913 2.94423 14.9899 3.08359L21.8889 15.9167C21.9618 16.0528 22 16.2047 22 16.3592C22 16.5136 21.9618 16.6655 21.8889 16.8016L19.689 20.9164C19.6127 21.0558 19.5022 21.172 19.3684 21.2526C19.2359 21.3328 19.0839 21.375 18.9291 21.3745H5.071C4.91615 21.375 4.76414 21.3328 4.63165 21.2526C4.49688 21.171 4.38623 21.0549 4.31104 20.9164L2.11116 16.8016C2.03819 16.6655 2 16.5136 2 16.3592C2 16.2047 2.03819 16.0528 2.11116 15.9167L9.00017 3.08359C9.07642 2.94423 9.18762 2.82797 9.32076 2.74736C9.45332 2.66719 9.60527 2.62503 9.76013 2.6255H14.2298ZM12 7.72959L7.35025 16.3748H16.6498L12 7.72959Z" fill="#767DFF"/>
</svg>

<svg xmlns="http://www.w3.org/2000/svg" width="24" height="24" fill="none" viewBox="0 0 24 24">
    <path fill="#767DFF" d="M14.23 2.626a.84.84 0 0 1 .44.121.9.9 0 0 1 .32.337l6.899 12.833a.94.94 0 0 1 0 .885l-2.2 4.114a.9.9 0 0 1-.32.337.84.84 0 0 1-.44.122H5.071a.84.84 0 0 1-.44-.122.9.9 0 0 1-.32-.337l-2.2-4.114a.94.94 0 0 1 0-.885l6.89-12.833a.9.9 0 0 1 .32-.337.84.84 0 0 1 .44-.121zM12 7.73l-4.65 8.645h9.3z"/>
</svg>
